X: 326
T: Sharampoy (Moldavian Dance)
R:
O: Moldavia
Q: 1/4=144
B: German Goldenshteyn "Shpilt klezmorimlach klingen zoln di gesalach" New York 2003 v.3 #_
Z: 2012 John Chambers <jc:trillian.mit.edu>
M: 2/4
L: 1/8
K: Em
|:\
(3(E^DE) (3(GFG) | (3(B^AB) (3(GFG) | E4- | EE F^G |\
((3A^GA) (3(cBc) | (3(e^de) (3(cBc) | A4- | AA Bc |
B4- | B>G B>A | G3 G | (~F>E) E2 |\
(3(ABc) Bz | (3(FGA) Gz | (3(BcB) (3(AGF) |[1 Ez B,2 :|[2 EB c^c ||
|: (3(ded) (3(cBA) | (3(cBA) (3(GFE) | D4- | DF G^G |\
A>^G A2- | A^G A^A | B>^A B2- | BB c^c |
(3(ded) (3(=cBA) | (3(cBA) (3(GFE) | (3(DEF) (3(GAB) | c3 z |\
((3BcB) ((3ABA) | ((3GAG) ((3FGF) |[1 E4- | EB c^c :|[2 E4- | E2 z2 |]
